public/images/arrow-right-up.svg

<svg width="23" height="22" viewBox="0 0 23 22" fill="none" xmlns="http://www.w3.org/2000/svg">
<rect x="0.913086" y="0.665039" width="21.1641" height="21.1641" fill="white"/>
<path d="M16.8019 6.78688C16.8019 6.31934 16.4228 5.94032 15.9553 5.94032L8.33624 5.94032C7.8687 5.94032 7.48968 6.31934 7.48968 6.78688C7.48968 7.25443 7.8687 7.63344 8.33624 7.63344H15.1087V14.4059C15.1087 14.8735 15.4878 15.2525 15.9553 15.2525C16.4228 15.2525 16.8019 14.8735 16.8019 14.4059L16.8019 6.78688ZM7.63377 16.3056L16.5539 7.38549L15.3567 6.18827L6.43655 15.1084L7.63377 16.3056Z" fill="black"/>
</svg>

<svg xmlns="http://www.w3.org/2000/svg" width="23" height="22" fill="none" xmlns:v="https://vecta.io/nano"><path fill="#fff" d="M.913.665h21.164v21.164H.913z"/><path d="M16.802 6.787c0-.468-.379-.847-.847-.847H8.336c-.468 0-.847.379-.847.847s.379.847.847.847h6.772v6.772c0 .468.379.847.847.847s.847-.379.847-.847V6.787zm-9.168 9.519l8.92-8.92-1.197-1.197-8.92 8.92 1.197 1.197z" fill="#000"/></svg>
